X:1
T:April Fool Rag
T:April Fool Rag
T:JEAN SCHWARTZ
T:Performing Rights Reserved
T:Copyright 1911 by JEROME H. REMICK &amp; Co.
T:Copyright 1911 by JEROME H. REMICK &amp; Co.
T:Copyright 1911 by JEROME H. REMICK &amp; Co.
T:Copyright 1911 by JEROME H. REMICK &amp; Co.
C:JEAN SCHWARTZ
Z:Copyright 1911 by JEROME H. REMICK & Co.
%%score { ( 1 2 ) | ( 3 4 ) }
L:1/8
Q:1/4=90
M:2/4
K:F
V:1 treble nm="Piano" snm="Pno."
V:2 treble 
V:3 bass 
V:4 bass 
V:1
"^Not fast"!p!{de} f/e/f/d/- d/^c/d/e/ | f/d'd/- d/^c/d/e/ | f/e/f/d/- d/^c/d/e/ | %3
 f/d'd/- d/^c/d/e/ | f/e/f/d/- d/^c/d/e/ | f/d'd/- d/^c/d/e/ |!f! [^Ge]/[Ge][Ge]/- [Ge]/d/[G=B] | %7
 [=G^ce]3 z |:!mf!{de} f/e/f/d/- d/^c/d/e/ | f/d'd/- d/^c/d/e/ | f/[dd'][dd']/- [dd']/^c'/[dd'] | %11
 [cc'] !^!e!^!f!^!g |{de} f/e/f/d/- d/^c/d/e/ | f/d'd/- d/^c/d/^d/ | e/ee/- e/=d/=B | [=G^ce]4 | %16
{de} f/e/f/d/- d/^c/d/e/ | f/d'd/- d/^c/d/e/ | f/[dd'][dd']/- [dd']/^c'/[dd'] | [e^c'e']4 | %20
 f/e/f/d/ e/^d/e/^c/ | =d/^c/d/A/ B/A/B/G/ | A/^G/A/B/ A/=G/F/E/ |1 D3 z :|2 z [FAd][FAd] z || %25
!ff! z/ C/D/^D/ E<[Cc] | [A,A]4 | z/ F/G/^G/ A<[Ff] | [Dd]4 |!p!"^legg." ^d/e/g/d/ e/g/d/e/ | %30
 g/!^!B!^!A/- A<!^!G | ^G/A/d/G/ A/d/G/A/ | c/!^!ED/- D<!^!_D |!ff! z/ C/D/^D/ E<[Cc] | [A,A]4 | %35
 z/ F/G/^G/ A<[Ff] | [Dd]4 |!mf!{de} f/e/f/d/- d/^c/d/^d/ | e/^d/e/c/- c/=B/c/^c/ | %39
 d/^c/d/A/- A/F/[_B,EG] | [A,CF]2 !^![FAcf] z ||{de} f/e/f/d/- d/^c/d/e/ | f/d'd/- d/^c/d/e/ | %43
 f/[dd'][dd']/- [dd']/^c'/[dd'] | [=c=c']4 |{de} f/e/f/d/- d/^c/d/e/ | f/d'd/- d/^c/d/^d/ | %47
 e/ee/- e/=d/=B | [=G^ce]4 |{de} f/e/f/d/- d/^c/d/e/ | f/d'd/- d/^c/d/e/ | %51
 f/[dd'][dd']/- [dd']/^c'/[dd'] | [e^c'e']4 | f/e/f/d/ e/^d/e/^c/ | =d/^c/d/A/ B/A/B/G/ | %55
 A/^G/A/B/ A/=G/F/E/ | D3 z ||[M:2/4]!mf! C/!<(!=B,/C/E/- E/^D/E | G/^F/G/B/- B/A/!<)!B | %59
!>(! c!8va(![c'c'']/[c'c'']/ [c'c'']!8va)!"^loco" [cc']/[cc']/ | [cc'] [Cc]/[Cc]/!>)! [Cc] z || %61
!p! CD F<A | [Cc]4 | [CBc][DBd] [EBe]<[CBc] | [Dd]4 | [DAd][EAe] [FAf]<[DAd] | [B,B]4 | %67
!>(! [A,A][G,G] [Cc]<[A,A] | D4!>)! | CD F<A | [Cc]4 | [CBc][DBd] [EBe]<[CBc] | [Dd]4 | %73
!f! f/ag/- g/f/d | c/ed/- d/c/A |!>(! _B/dD/- D[EA]!>)! | F3 z ||!ff! x4 | %78
 x3!8va(! [f'f'']/[e'e'']/ | [d'd'']!8va)![ff']/[ee']/ [dd'][Ff]/[Ee]/ | [Dd] z z2 |!ff! x4 | %82
 x3!8va(! [e'e'']/[d'd'']/ | [c'c'']!8va)![ee']/[dd']/ [cc'][Ee]/[Dd]/ | [Cc] z z2 | %85
!ff! C/DE/- E/G/A | c/de/- e/g/a | c'/d'/e'/g'/- g'/e'/g' | c''2 x2 || %89
!ff!"^Maestoso" [Cc][Dd] [Ff]<[Aa] | [cc']4 | [cbc'][dbd'] [ebe']<[cbc'] | [dd']4 | %93
 [dad'][eae'] [faf']<[dad'] | [Bb]4 | [Aa][Gg] [cc']<[Aa] | [Dd]4 | [Cc][Dd] [Ff]<[Aa] | [cc']4 | %99
 [cbc'][dbd'] [ebe']<[cbc'] | [dd']4 | [Ff]/[Aa][Gg]/- [Gg]/f/d | [Cc]/[Ee][Dd]/- [Dd]/[Cc]/A | %103
 _B/dD/- D[EA] | F2 !^![FAcf] z |] %105
V:2
 [DFA]3 [DFA] | [DFA]3 [DFA] | [CFA]3 [CFA] | [CFA]3 [CFA] | [=B,DF^G]3 [B,DG] | %5
 [=B,DF^G]3 [B,DFG] | x4 | x4 |: x4 | x4 | x4 | x4 | x4 | x4 | x4 | x4 | x4 | x4 | x4 | x4 | x4 | %21
 x4 | x4 |1 z [F,A,][F,A,] z :|2 D3 x || x4 | z [CE] z [CE] | x4 | z [FA] z [F=B] | x4 | x4 | x4 | %32
 x4 | x4 | z [CE] z [CE] | x4 | z [F=B] z [Fc] | [DFA]3 [DFA] | [CFA]3 [CFA] | %39
 [B,DF]>[=B,DF]- [B,DF] x | x4 || x4 | x4 | x4 | z efg | x4 | x4 | x4 | x4 | x4 | x4 | x4 | x4 | %53
 x4 | x4 | x4 | z [F,A,][F,A,] z ||[M:2/4] x4 | x4 | x!8va(! x2!8va)! x | x4 || x4 | %62
 z [EB]/[EB]/- [EB]/[EB]/[EB] | x4 | z [FA]/[FA]/- [FA]/[FA]/[FA] | x4 | %66
 z [DG]/[DG]/- [DG]/[DG]/[DG] | x4 | z [F,A,]/[F,A,]/- [F,A,]/[F,A,]/[F,A,] | x4 | %70
 z [EB]/[EB]/- [EB]/[EB]/[EB] | x4 | z [^FA]/[FA]/- [FA]/[FA]/[FA] | x4 | x4 | x4 | %76
 z [A,C][A,C] z || x4 | x3!8va(! x | x!8va)! x3 | x4 | x4 | x3!8va(! x | x!8va)! x3 | x4 | x4 | %86
 C/DE/- E/G/A | c/d/e/g/- g/e/g | c'2 x2 || x4 | z [eb]/[eb]/- [eb]/[eb]/[eb] | x4 | %92
 z [fa]/[fa]/- [fa]/[fa]/[fa] | x4 | z [dg]/[dg]/- [dg]/[dg]/[dg] | x4 | %96
 z [FA]/[FA]/- [FA]/[FA]/[FA] | x4 | z [eb]/[eb]/- [eb]/[eb]/[eb] | x4 | %100
 z [^fa]/[fa]/- [fa]/[fa]/[fa] | x4 | x4 | x4 | x4 |] %105
V:3
 x4 | x4 | x4 | x4 | x4 | x4 | [E,=B,]2 [E,B,]2 | z !^![A,,,A,,]!^![=B,,,=B,,]!^![C,,C,] |: %8
 [D,,D,][F,A,D] A,,[F,A,D] | D,[F,A,D] =C,[F,A,D] | B,,[F,B,] D,[F,B,] | %11
 [F,A,] !^![C,,C,]!^![D,,D,]!^![E,,E,] | [D,,D,][F,A,D] A,,[F,A,D] | D,[F,A,D] =C,[F,A,D] | %14
 =B,,[E,^G,D] E,,[E,G,D] | [A,,A,]!^![^A,,^A,]!^![=B,,=B,]!^![C,C] | [D,,D,][F,A,D] A,,[F,A,D] | %17
 D,[F,A,D] =C,[F,A,D] | B,,[F,B,] D,[F,B,] | [A,,A,]!^![G,,G,]!^![F,,F,]!^![E,,E,] | %20
 [D,,D,][F,A,D] E,[G,A,^C] | F,[A,D] G,[B,D] | A,/^G,/A,/B,/ A,/=G,/F,/E,/ |1 D,!^!A,,!^!D,, z :|2 %24
 z !^![G,,,A,,]!^![D,,D,]!^![_D,,_D,] ||{C,,-E,,-G,,-} !^![C,,E,,G,,C,]z[G,,,G,,] z | %26
 [C,,C,]2 !>![B,,,B,,]2 |{A,,,-C,,F,,} !^![A,,,A,,]z[F,,F,] z | [A,,A,]2 !>![_A,,_A,]2 | %29
 [G,,G,][B,CE] C,[B,CE] | G,[B,CE] C,[B,CE] | F,[A,CF] C,[A,CF] | F,,[F,A,] C,,[F,A,] | %33
{C,,E,,G,,} !^![C,,E,,G,,C,]z[G,,,G,,] z | [C,,C,]2 !>![B,,,B,,]2 | %35
{A,,,-C,,F,,} !^![A,,,A,,]z[F,,F,] z | [A,,A,] !>![^G,,^G,]2 [A,,A,] | x4 | x4 | x3 [C,,C,] | %40
 [F,,F,]!^!C,!^!F,, z || [D,,D,][F,A,D] A,,[F,A,D] | D,[F,A,D] =C,[F,A,D] | B,,[F,B,] D,[F,B,] | %44
 [F,A,] !^![C,,C,]!^![D,,D,]!^![E,,E,] | [D,,D,][F,A,D] A,,[F,A,D] | D,[F,A,D] =C,[F,A,D] | %47
 =B,,[E,^G,D] E,,[E,G,D] | [A,,A,]!^![^A,,^A,]!^![=B,,=B,]!^![C,C] | [D,,D,][F,A,D] A,,[F,A,D] | %50
 D,[F,A,D] =C,[F,A,D] | B,,[F,B,] D,[F,B,] | [A,,A,]!^![G,,G,]!^![F,,F,]!^![E,,E,] | %53
 [D,,D,][F,A,D] E,[G,A,^C] | F,[A,D] G,[B,D] | A,/^G,/A,/B,/ A,/=G,/F,/E,/ | D,!^!A,,!^!D,, z || %57
[M:2/4] C,/=B,,/C,/E,/- E,/^D,/E, | G,/^F,/G,/B,/- B,/A,/B, | C z z2 | z z2 [C,,C,] || %61
 [G,,C,]"^dolce"D, F,<A, | [G,,G,]z[C,,C,] z | [G,,G,]z[C,,C,] z | [F,,F,]z[C,,C,] z | %65
 [F,,F,]z[C,,C,] z | [G,,G,]2 [F,,F,]2 | [E,,E,] z [C,,C,] z | [F,,D,]4 | [G,,C,]D, F,<A, | %70
 [G,,G,]z[C,,C,] z | [G,,G,]z[C,,C,] z | [D,,D,]2 [C,,C,]2 | [=B,,,=B,,][D,G,=B,] [G,B,D]2 | %74
 [C,,C,][F,A,] [D,^F,A,C]2 | G,,[G,_B,] C,,[B,C] | F,C,G,, z || %77
{E,^F,^G,} A,/^G,/A,/E,/- E,/^D,/E, | A,/^G,/A,/E,/- E, z | z4 | z !^![A,,,A,,]!^![D,,D,] z | %81
{D,E,^F,} G,/^F,/G,/D,/- D,/^C,/D, | G,/^F,/G,/D,/- D, z | z4 | z !^![G,,,G,,]!^![C,,C,] z | %85
 C,/D,E,/- E,/G,/A, | x4 | x4 | x2 !^![C,,C,]2 || [F,,F,][A,C] C,[A,CF] | %90
 [G,,G,][B,CE] [C,,C,][B,CE] | [G,,G,][B,CE] [C,,C,][B,CE] | [F,,F,][A,CF] [C,,C,][A,CF] | %93
 [F,,F,][A,CF] [C,,C,][A,CF] | [G,,G,][B,D] [F,,F,][B,D] | [E,,E,][B,C] [C,,C,][B,C] | %96
 F,[A,C] C,[A,C] | [F,,F,][A,C] C,[A,CF] | [G,,G,][B,CE] [C,,C,][B,CE] | %99
 [G,,G,][B,CE] [C,,C,][B,CE] | [D,,D,][^F,A,D] [C,,C,][F,A,D] | [=B,,,=B,,][D,G,=B,] [G,B,D]2 | %102
 [C,,C,][F,A,] [D,^F,A,C]2 | G,,[G,_B,] C,,[B,C] | [F,,F,]!^![C,,C,]!^![F,,,F,,] z |] %105
V:4
 x4 | x4 | x4 | x4 | x4 | x4 | x4 | x4 |: x4 | D,2 C,2 | B,,2 D,2 | x4 | x4 | D,2 C,2 | x4 | x4 | %16
 x4 | D,2 C,2 | B,,2 D,2 | x4 | x2 E,2 | x4 | x4 |1 x4 :|2 x4 || x4 | x4 | x4 | x4 | x4 | x4 | x4 | %32
 x4 | x4 | x4 | x4 | x4 | x4 | x4 | x4 | x4 || x4 | D,2 C,2 | B,,2 D,2 | x4 | x4 | D,2 C,2 | x4 | %48
 x4 | x4 | D,2 C,2 | B,,2 D,2 | x4 | x2 E,2 | x4 | x4 | x4 ||[M:2/4] x4 | x4 | x4 | x4 || x4 | x4 | %63
 x4 | x4 | x4 | x4 | x4 | x4 | x4 | x4 | x4 | x4 | x4 | x4 | x4 | x4 || %77
{E,,^F,,^G,,} A,,/^G,,/A,,/E,,/- E,,/^D,,/E,, | A,,/^G,,/A,,/E,,/- E,, z | x4 | x4 | %81
{D,,E,,^F,,} G,,/^F,,/G,,/D,,/- D,,/^C,,/D,, | G,,/^F,,/G,,/D,,/- D,, z | x4 | x4 | x4 | x4 | x4 | %88
 x4 || x4 | x4 | x4 | x4 | x4 | x4 | x4 | x4 | x4 | x4 | x4 | x4 | x4 | x4 | x4 | x4 |] %105

